X:72
M:4/4
L:1/4
K:D
d/ | c B c A | B c d z/ d/ | d A A F | A G F z/ F/ | B B A c | d B A z/ !sintro!d/ | c B A A | G/F/ E !fermata!D z/ !eintro!|] This hymn was written by Martin Luther to teach his 3 year old son about Christmas, and became a part of the Luther family Christmas tradition. One of the adults would dress up as an angel and sing the first 5 verses to the family.  The rest of the family would sing verses 6 through 15.
